SVG_Azure_Grouped/Application/Service Fabric Managed Cluster.svg

<?xml version="1.0" encoding="UTF-8" standalone="no"?>
<!-- Generated by Microsoft Visio, SVG Export Service Fabric Managed Cluster.svg Page-1 -->

<svg
   xmlns:dc="http://purl.org/dc/elements/1.1/"
   xmlns:cc="http://creativecommons.org/ns#"
   xmlns:rdf="http://www.w3.org/1999/02/22-rdf-syntax-ns#"
   xmlns:svg="http://www.w3.org/2000/svg"
   xmlns="http://www.w3.org/2000/svg"
   xmlns:xlink="http://www.w3.org/1999/xlink"
   xmlns:sodipodi="http://sodipodi.sourceforge.net/DTD/sodipodi-0.dtd"
   xmlns:inkscape="http://www.inkscape.org/namespaces/inkscape"
   width="0.78740257in"
   height="0.78740799in"
   viewBox="0 0 56.692929 56.693375"
   xml:space="preserve"
   class="st6"
   version="1.1"
   id="svg68"
   sodipodi:docname="Service Fabric Managed Cluster.svg"
   style="font-size:12px;overflow:visible;color-interpolation-filters:sRGB;fill:none;fill-rule:evenodd;stroke-linecap:square;stroke-miterlimit:3"
   inkscape:version="0.92.5 (2060ec1f9f, 2020-04-08)"><metadata
   id="metadata72"><rdf:RDF><cc:Work
       rdf:about=""><dc:format>image/svg+xml</dc:format><dc:type
         rdf:resource="http://purl.org/dc/dcmitype/StillImage" /></cc:Work></rdf:RDF></metadata><sodipodi:namedview
   pagecolor="#ffffff"
   bordercolor="#666666"
   borderopacity="1"
   objecttolerance="10"
   gridtolerance="10"
   guidetolerance="10"
   inkscape:pageopacity="0"
   inkscape:pageshadow="2"
   inkscape:window-width="640"
   inkscape:window-height="480"
   id="namedview70"
   showgrid="false"
   inkscape:zoom="1.4292635"
   inkscape:cx="37.795261"
   inkscape:cy="37.205787"
   inkscape:window-x="0"
   inkscape:window-y="0"
   inkscape:window-maximized="0"
   inkscape:current-layer="svg68" />
	<style
   type="text/css"
   id="style2">
	<![CDATA[
		.st1 {fill:#e27908;stroke:none;stroke-linecap:butt;stroke-width:33.1311}
		.st2 {fill:url(#grad0-8);stroke:none;stroke-linecap:butt;stroke-width:33.1311}
		.st3 {fill:url(#grad0-12);stroke:none;stroke-linecap:butt;stroke-width:33.1311}
		.st4 {fill:url(#grad0-22)}
		.st5 {stroke:none;stroke-linecap:butt;stroke-width:33.1311}
		.st6 {fill:none;fill-rule:evenodd;font-size:12px;overflow:visible;stroke-linecap:square;stroke-miterlimit:3}
	]]>
	</style>

	<defs
   id="Patterns_And_Gradients">
		<linearGradient
   id="grad0-8"
   x1="0"
   y1="105.9772"
   x2="16.376187"
   y2="105.9772"
   gradientTransform="scale(0.98799928,1.0121465)"
   gradientUnits="userSpaceOnUse">
			<stop
   offset="0"
   stop-color="#ef7100"
   stop-opacity="1"
   id="stop4" />
			<stop
   offset="1"
   stop-color="#faa21d"
   stop-opacity="1"
   id="stop6" />
		</linearGradient>
		<linearGradient
   id="grad0-12"
   x1="0"
   y1="0"
   x2="1"
   y2="0"
   gradientTransform="rotate(-90,0.5,0.5)">
			<stop
   offset="0"
   stop-color="#ef7100"
   stop-opacity="1"
   id="stop9" />
			<stop
   offset="1"
   stop-color="#faa21d"
   stop-opacity="1"
   id="stop11" />
		</linearGradient>
		<linearGradient
   id="grad0-22"
   x1="6.3173135e-15"
   y1="97.766481"
   x2="24.111927"
   y2="97.766481"
   gradientTransform="scale(0.98416027,1.0160947)"
   gradientUnits="userSpaceOnUse">
			<stop
   offset="0"
   stop-color="#773adc"
   stop-opacity="1"
   id="stop14" />
			<stop
   offset="0.205"
   stop-color="#7b3fde"
   stop-opacity="1"
   id="stop16" />
			<stop
   offset="0.46"
   stop-color="#864fe4"
   stop-opacity="1"
   id="stop18" />
			<stop
   offset="0.74"
   stop-color="#9968ed"
   stop-opacity="1"
   id="stop20" />
			<stop
   offset="0.9"
   stop-color="#a67af4"
   stop-opacity="1"
   id="stop22" />
		</linearGradient>
	<linearGradient
   inkscape:collect="always"
   xlink:href="#grad0-12"
   id="linearGradient4582"
   gradientTransform="scale(0.98799928,1.0121465)"
   x1="0"
   y1="105.9772"
   x2="16.376187"
   y2="105.9772"
   gradientUnits="userSpaceOnUse" /><linearGradient
   inkscape:collect="always"
   xlink:href="#grad0-12"
   id="linearGradient4584"
   gradientTransform="scale(0.98799928,1.0121465)"
   x1="0"
   y1="105.9772"
   x2="16.376187"
   y2="105.9772"
   gradientUnits="userSpaceOnUse" /><linearGradient
   inkscape:collect="always"
   xlink:href="#grad0-12"
   id="linearGradient4586"
   gradientTransform="scale(0.98799928,1.0121465)"
   x1="0"
   y1="105.9772"
   x2="16.376187"
   y2="105.9772"
   gradientUnits="userSpaceOnUse" /></defs>
	<g
   id="g66"
   transform="translate(-33.1311,-33.130952)">
		<title
   id="title26">Page-1</title>
		<g
   id="group13750-1"
   transform="translate(33.1311,-34.0157)">
			<title
   id="title28">Service Fabric Managed Cluster.13750</title>
			<g
   id="group13751-2">
				<title
   id="title30">g14</title>
				<g
   id="shape13752-3"
   transform="translate(5.05134,-6.68849)">
					<title
   id="title32">path2</title>
					<path
   d="M 26.98,82.41 22.92,79.35 18.93,82.38 0,96.2 l 7.37,22.81 1.54,4.83 h 6.07 v -4.83 H 12.31 L 5.76,98.14 22.92,85.46 l 17.29,12.72 -1.14,3.64 h 4.96 V 102 l 1.81,-5.64 V 96.2 Z"
   class="st1"
   id="path34"
   inkscape:connector-curvature="0"
   style="fill:#e27908;stroke:none;stroke-width:33.1310997;stroke-linecap:butt" />
				</g>
				<g
   id="shape13753-5"
   transform="translate(7.0129,-0.180593)">
					<title
   id="title37">circle4</title>
					<ellipse
   cx="8.0898304"
   cy="115.552"
   rx="8.0898304"
   ry="8.28755"
   class="st2"
   id="ellipse39"
   style="fill:url(#grad0-8);stroke:none;stroke-width:33.1310997;stroke-linecap:butt" />
				</g>
				<g
   id="shape13754-9"
   transform="translate(40.5133,-25.0039)">
					<title
   id="title42">circle6</title>
					<ellipse
   cx="8.0898304"
   cy="115.552"
   rx="8.0898304"
   ry="8.28755"
   class="st3"
   id="ellipse44"
   style="fill:url(#linearGradient4582);stroke:none;stroke-width:33.1310997;stroke-linecap:butt" />
				</g>
				<g
   id="shape13755-13"
   transform="translate(0,-25.0039)">
					<title
   id="title47">circle8</title>
					<ellipse
   cx="8.0898304"
   cy="115.552"
   rx="8.0898304"
   ry="8.28755"
   class="st3"
   id="ellipse49"
   style="fill:url(#linearGradient4584);stroke:none;stroke-width:33.1310997;stroke-linecap:butt" />
				</g>
				<g
   id="shape13756-16"
   transform="translate(19.8816,-40.1178)">
					<title
   id="title52">circle10</title>
					<ellipse
   cx="8.0898304"
   cy="115.552"
   rx="8.0898304"
   ry="8.28755"
   class="st3"
   id="ellipse54"
   style="fill:url(#linearGradient4586);stroke:none;stroke-width:33.1310997;stroke-linecap:butt" />
				</g>
				<g
   id="shape13757-19"
   transform="translate(27.2791)">
					<title
   id="title57">path12</title>
					<path
   d="m 14.56,120.22 1.87,-0.8 3.25,1.53 1.94,-1.99 -0.19,-0.38 -1.35,-2.63 0.55,-1.99 3.1,-1.31 v -2.84 l -0.15,-0.12 -2.88,-1.02 -0.74,-1.94 1.47,-2.91 0.14,-0.33 -0.87,-0.97 -1.04,-1.12 -0.38,0.2 -2.77,1.45 -1.9,-0.56 -1.2,-3.15 h -2.75 l -0.14,0.15 -0.95,2.88 -1.94,0.75 -3.21,-1.55 -1.94,1.99 0.19,0.39 1.45,2.81 -0.79,1.94 -3.33,1.24 v 2.84 l 0.4,0.12 2.94,0.98 0.78,2.07 -1.51,3.28 1.94,2.01 0.38,-0.16 2.77,-1.46 1.89,0.8 1.21,3.42 h 2.79 z m -2.46,-4.94 a 3.88466,3.9796 0 1 1 3.86,-4.01 3.90709,4.00259 0 0 1 -3.86,4.01 z"
   class="st4"
   id="path59"
   inkscape:connector-curvature="0"
   style="fill:url(#grad0-22)" />
					<path
   d="m 14.56,120.22 1.87,-0.8 3.25,1.53 1.94,-1.99 -0.19,-0.38 -1.35,-2.63 0.55,-1.99 3.1,-1.31 v -2.84 l -0.15,-0.12 -2.88,-1.02 -0.74,-1.94 1.47,-2.91 0.14,-0.33 -0.87,-0.97 -1.04,-1.12 -0.38,0.2 -2.77,1.45 -1.9,-0.56 -1.2,-3.15 h -2.75 l -0.14,0.15 -0.95,2.88 -1.94,0.75 -3.21,-1.55 -1.94,1.99 0.19,0.39 1.45,2.81 -0.79,1.94 -3.33,1.24 v 2.84 l 0.4,0.12 2.94,0.98 0.78,2.07 -1.51,3.28 1.94,2.01 0.38,-0.16 2.77,-1.46 1.89,0.8 1.21,3.42 h 2.79 m -1.49,-8.56 a 3.88466,3.9796 0 1 1 3.86,-4.01 3.90709,4.00259 0 0 1 -3.86,4.01"
   class="st5"
   id="path61"
   inkscape:connector-curvature="0"
   style="stroke:none;stroke-width:33.1310997;stroke-linecap:butt" />
				</g>
			</g>
		</g>
	</g>
</svg>

<?xml version="1.0" encoding="UTF-8" standalone="no"?>
<!DOCTYPE svg PUBLIC "-//W3C//DTD SVG 1.1//EN" "http://www.w3.org/Graphics/SVG/1.1/DTD/svg11.dtd">
<!-- Generated by Microsoft Visio, SVG Export Service Fabric Managed Cluster.svg Page-1 -->
<svg xmlns="http://www.w3.org/2000/svg" xmlns:xlink="http://www.w3.org/1999/xlink" xmlns:ev="http://www.w3.org/2001/xml-events"
		width="1.70771in" height="1.72in" viewBox="0 0 122.955 123.84" xml:space="preserve" color-interpolation-filters="sRGB"
		class="st6">
	<style type="text/css">
	<![CDATA[
		.st1 {fill:#e27908;stroke:none;stroke-linecap:butt;stroke-width:33.1311}
		.st2 {fill:url(#grad0-8);stroke:none;stroke-linecap:butt;stroke-width:33.1311}
		.st3 {fill:url(#grad0-12);stroke:none;stroke-linecap:butt;stroke-width:33.1311}
		.st4 {fill:url(#grad0-22)}
		.st5 {stroke:none;stroke-linecap:butt;stroke-width:33.1311}
		.st6 {fill:none;fill-rule:evenodd;font-size:12px;overflow:visible;stroke-linecap:square;stroke-miterlimit:3}
	]]>
	</style>

	<defs id="Patterns_And_Gradients">
		<linearGradient id="grad0-8" x1="0" y1="0" x2="1" y2="0" gradientTransform="rotate(-90.153672991022 0.5 0.5)">
			<stop offset="0" stop-color="#ef7100" stop-opacity="1"/>
			<stop offset="1" stop-color="#faa21d" stop-opacity="1"/>
		</linearGradient>
		<linearGradient id="grad0-12" x1="0" y1="0" x2="1" y2="0" gradientTransform="rotate(-90 0.5 0.5)">
			<stop offset="0" stop-color="#ef7100" stop-opacity="1"/>
			<stop offset="1" stop-color="#faa21d" stop-opacity="1"/>
		</linearGradient>
		<linearGradient id="grad0-22" x1="0" y1="0" x2="1" y2="0" gradientTransform="rotate(-90 0.5 0.5)">
			<stop offset="0" stop-color="#773adc" stop-opacity="1"/>
			<stop offset="0.205" stop-color="#7b3fde" stop-opacity="1"/>
			<stop offset="0.46" stop-color="#864fe4" stop-opacity="1"/>
			<stop offset="0.74" stop-color="#9968ed" stop-opacity="1"/>
			<stop offset="0.9" stop-color="#a67af4" stop-opacity="1"/>
		</linearGradient>
	</defs>
	<g>
		<title>Page-1</title>
		<g id="group13403-1" transform="translate(33.1311,-34.0157)">
			<title>Service Fabric Managed Cluster.13403</title>
			<g id="group13404-2">
				<title>g14</title>
				<g id="shape13405-3" transform="translate(5.05134,-6.68849)">
					<title>path2</title>
					<path d="M26.98 82.41 L22.92 79.35 L18.93 82.38 L0 96.2 L7.37 119.01 L8.91 123.84 L14.98 123.84 L14.98 119.01
								 L12.31 119.01 L5.76 98.14 L22.92 85.46 L40.21 98.18 L39.07 101.82 L44.03 101.82 L44.03 102 L45.84
								 96.36 L45.84 96.2 L26.98 82.41 Z" class="st1"/>
				</g>
				<g id="shape13406-5" transform="translate(7.0129,-0.180593)">
					<title>circle4</title>
					<ellipse cx="8.08983" cy="115.552" rx="8.08983" ry="8.28755" class="st2"/>
				</g>
				<g id="shape13407-9" transform="translate(40.5133,-25.0039)">
					<title>circle6</title>
					<ellipse cx="8.08983" cy="115.552" rx="8.08983" ry="8.28755" class="st3"/>
				</g>
				<g id="shape13408-13" transform="translate(2.8777E-13,-25.0039)">
					<title>circle8</title>
					<ellipse cx="8.08983" cy="115.552" rx="8.08983" ry="8.28755" class="st3"/>
				</g>
				<g id="shape13409-16" transform="translate(19.8816,-40.1178)">
					<title>circle10</title>
					<ellipse cx="8.08983" cy="115.552" rx="8.08983" ry="8.28755" class="st3"/>
				</g>
				<g id="shape13410-19" transform="translate(27.2791,0)">
					<title>path12</title>
					<path d="M14.56 120.22 L16.43 119.42 L19.68 120.95 L21.62 118.96 L21.43 118.58 L20.08 115.95 L20.63 113.96 L23.73
								 112.65 L23.73 109.81 L23.58 109.69 L20.7 108.67 L19.96 106.73 L21.43 103.82 L21.57 103.49 L20.7
								 102.52 L19.66 101.4 L19.28 101.6 L16.51 103.05 L14.61 102.49 L13.41 99.34 L10.66 99.34 L10.52 99.49
								 L9.57 102.37 L7.63 103.12 L4.42 101.57 L2.48 103.56 L2.67 103.95 L4.12 106.76 L3.33 108.7 L0 109.94
								 L0 112.78 L0.4 112.9 L3.34 113.88 L4.12 115.95 L2.61 119.23 L4.55 121.24 L4.93 121.08 L7.7 119.62
								 L9.59 120.42 L10.8 123.84 L13.59 123.84 L14.56 120.22 ZM12.1 115.28 A3.88466 3.9796 0 1 1 15.96
								 111.27 A3.90709 4.00259 0 0 1 12.1 115.28 Z" class="st4"/>
					<path d="M14.56 120.22 L16.43 119.42 L19.68 120.95 L21.62 118.96 L21.43 118.58 L20.08 115.95 L20.63 113.96 L23.73
								 112.65 L23.73 109.81 L23.58 109.69 L20.7 108.67 L19.96 106.73 L21.43 103.82 L21.57 103.49 L20.7
								 102.52 L19.66 101.4 L19.28 101.6 L16.51 103.05 L14.61 102.49 L13.41 99.34 L10.66 99.34 L10.52 99.49
								 L9.57 102.37 L7.63 103.12 L4.42 101.57 L2.48 103.56 L2.67 103.95 L4.12 106.76 L3.33 108.7 L0 109.94
								 L0 112.78 L0.4 112.9 L3.34 113.88 L4.12 115.95 L2.61 119.23 L4.55 121.24 L4.93 121.08 L7.7 119.62
								 L9.59 120.42 L10.8 123.84 L13.59 123.84M12.1 115.28 A3.88466 3.9796 0 1 1 15.96 111.27 A3.90709
								 4.00259 0 0 1 12.1 115.28" class="st5"/>
				</g>
			</g>
		</g>
	</g>
</svg>
